ui/StatusQ/src/assets/img/icons/flags.svg

<svg fill="none" height="24" viewBox="0 0 24 24" width="24" xmlns="http://www.w3.org/2000/svg"><path clip-rule="evenodd" d="m5.80244 5.38251c-.03248.0171-.05244.05097-.05244.08766v6.68313c0 .36.39262.5907.72817.4602 1.33942-.5208 3.21314-.6283 5.41933.7506 1.7999 1.1249 3.4639 1.1199 4.6863.8421.6169-.1402 1.1223-.3508 1.4714-.5254.1213-.0606.1948-.1862.1948-.3218v-6.52654c0-.34294-.3379-.58465-.6697-.4982-.2161.05628-.4487.10874-.6961.15373-1.4942.27166-3.5415.27197-5.7196-.81709-1.84088-.92044-3.28944-.90257-4.25191-.68869-.48791.10843-.86286.2701-1.11025.4003zm12.82596-1.03392-.001.00057-.02.01079c-.0197.01047-.0519.02722-.0959.04882-.0882.04324-.2232.10573-.3994.1762-.3531.14125-.867.31279-1.4963.42721-1.2558.22834-2.9585.22803-4.7804-.68292-2.15913-1.07958-3.96057-1.09745-5.2481-.81133-.63709.14158-1.13713.35492-1.48349.53721-.17331.09122-.30882.17502-.4046.23887-.04793.03195-.08601.05898-.11402.07954-.014.01028-.0255.01896-.03446.02583l-.01154.00894-.00433.00342-.00181.00144-.00082.00065s.00954-.00757.0185-.01445l-.0185.01445-.09458.07566c-.11861.09489-.18765.23854-.18765.39043v15.62008c0 .2762.22386.5.5.5h.5c.27614 0 .5-.2238.5-.5v-5.4761c0-.1394.05713-.2737.16474-.3622.00413-.0034.00828-.0068.01248-.0102.25163-.2053.62194-.4561 1.09461-.6399.91058-.3542 2.28686-.4967 4.08067.6245 2.2001 1.3751 4.2861 1.38 5.8137 1.0328.7581-.1723 1.3777-.4304 1.8098-.6464.2167-.1084.3879-.207.5079-.2805.06-.0368.1073-.0674.1412-.09.0137-.0091.0252-.0169.0345-.0233.0041-.0028.0082-.0057.0123-.0086.0022-.0015.0046-.0032.0066-.0044.012-.0077.0359-.0246.0496-.0342.0068-.0049.0137-.0095.0207-.014l.0442-.0284.0582-.0446c.028-.0214.0539-.0455.0744-.0741.0314-.0438.0744-.1133.0744-.1655v-9.68561c0-.38392-.4147-.6246-.7481-.43412l-.3718.21248z" fill="#000" fill-rule="evenodd"/></svg>

<svg width="24" height="24" viewBox="0 0 24 24" fill="none" xmlns="http://www.w3.org/2000/svg">
<path fill-rule="evenodd" clip-rule="evenodd" d="M5.80244 5.38251C5.76996 5.39961 5.75 5.43348 5.75 5.47017V12.1533C5.75 12.5133 6.14262 12.744 6.47817 12.6135C7.81759 12.0927 9.69131 11.9852 11.8975 13.3641C13.6974 14.489 15.3614 14.484 16.5838 14.2062C17.2007 14.066 17.7061 13.8554 18.0552 13.6808C18.1765 13.6202 18.25 13.4946 18.25 13.359V6.83246C18.25 6.48952 17.9121 6.24781 17.5803 6.33426C17.3642 6.39054 17.1316 6.443 16.8842 6.48799C15.39 6.75965 13.3427 6.75996 11.1646 5.6709C9.32372 4.75046 7.87516 4.76833 6.91269 4.98221C6.42478 5.09064 6.04983 5.25231 5.80244 5.38251ZM18.6284 4.34859L18.6274 4.34916L18.6074 4.35995C18.5877 4.37042 18.5555 4.38717 18.5115 4.40877C18.4233 4.45201 18.2883 4.5145 18.1121 4.58497C17.759 4.72622 17.2451 4.89776 16.6158 5.01218C15.36 5.24052 13.6573 5.24021 11.8354 4.32926C9.67627 3.24968 7.87483 3.23181 6.5873 3.51793C5.95021 3.65951 5.45017 3.87285 5.10381 4.05514C4.9305 4.14636 4.79499 4.23016 4.69921 4.29401C4.65128 4.32596 4.6132 4.35299 4.58519 4.37355C4.57119 4.38383 4.55969 4.39251 4.55073 4.39938L4.53919 4.40832L4.53486 4.41174L4.53305 4.41318L4.53223 4.41383C4.53223 4.41383 4.54177 4.40626 4.55073 4.39938L4.53223 4.41383L4.43765 4.48949C4.31904 4.58438 4.25 4.72803 4.25 4.87992V20.5C4.25 20.7762 4.47386 21 4.75 21H5.25C5.52614 21 5.75 20.7762 5.75 20.5V15.0239C5.75 14.8845 5.80713 14.7502 5.91474 14.6617C5.91887 14.6583 5.92302 14.6549 5.92722 14.6515C6.17885 14.4462 6.54916 14.1954 7.02183 14.0116C7.93241 13.6574 9.30869 13.5149 11.1025 14.6361C13.3026 16.0112 15.3886 16.0161 16.9162 15.6689C17.6743 15.4966 18.2939 15.2385 18.726 15.0225C18.9427 14.9141 19.1139 14.8155 19.2339 14.742C19.2939 14.7052 19.3412 14.6746 19.3751 14.652C19.3888 14.6429 19.4003 14.6351 19.4096 14.6287C19.4137 14.6259 19.4178 14.623 19.4219 14.6201C19.4241 14.6186 19.4265 14.6169 19.4285 14.6157C19.4405 14.608 19.4644 14.5911 19.4781 14.5815C19.4849 14.5766 19.4918 14.572 19.4988 14.5675L19.543 14.5391L19.6012 14.4945C19.6292 14.4731 19.6551 14.449 19.6756 14.4204C19.707 14.3766 19.75 14.3071 19.75 14.2549V4.56929C19.75 4.18537 19.3353 3.94469 19.0019 4.13517L18.6301 4.34765L18.6284 4.34859Z" fill="black"/>
</svg>
